svg/Pictogram/pictograms-recycle-plastic-3-pvc.svg

<?xml version="1.0" encoding="UTF-8" standalone="no"?>
<!-- Created with Inkscape (http://www.inkscape.org/) --><svg height="89" id="svg2241" inkscape:export-filename="M:\recyclage4.jpg.png" inkscape:export-xdpi="104" inkscape:export-ydpi="104" inkscape:output_extension="org.inkscape.output.svg.inkscape" inkscape:version="0.46" sodipodi:docbase="M:\" sodipodi:docname="pictograms-recycle-plastic-3-PVC.svg" sodipodi:modified="TRUE" sodipodi:version="0.32" version="1.0" width="89" xmlns="http://www.w3.org/2000/svg" xmlns:cc="http://creativecommons.org/ns#" xmlns:dc="http://purl.org/dc/elements/1.1/" xmlns:inkscape="http://www.inkscape.org/namespaces/inkscape" xmlns:rdf="http://www.w3.org/1999/02/22-rdf-syntax-ns#" xmlns:sodipodi="http://sodipodi.sourceforge.net/DTD/sodipodi-0.dtd" xmlns:svg="http://www.w3.org/2000/svg">
  <metadata>
    <rdf:RDF xmlns:cc="http://web.resource.org/cc/" xmlns:dc="http://purl.org/dc/elements/1.1/" xmlns:rdf="http://www.w3.org/1999/02/22-rdf-syntax-ns#">
      <cc:Work rdf:about="">
        <dc:title></dc:title>
        <dc:description></dc:description>
        <dc:subject>
          <rdf:Bag>
            <rdf:li>unsorted</rdf:li>
          </rdf:Bag>
        </dc:subject>
        <dc:publisher>
          <cc:Agent rdf:about="http://www.openclipart.org/">
            <dc:title>Open Clip Art Library, Source: Open Clip Art Library, Source: Open Clip Art Library</dc:title>
          </cc:Agent>
        </dc:publisher>
        <dc:creator>
          <cc:Agent>
            <dc:title></dc:title>
          </cc:Agent>
        </dc:creator>
        <dc:rights>
          <cc:Agent>
            <dc:title></dc:title>
          </cc:Agent>
        </dc:rights>
        <dc:date></dc:date>
        <dc:format>image/svg+xml</dc:format>
        <dc:type rdf:resource="http://purl.org/dc/dcmitype/StillImage"/>
        <cc:license rdf:resource="http://en.wikipedia.org/wiki/Public_domain"/>
        <dc:language>en</dc:language>
      </cc:Work>
    </rdf:RDF>
  </metadata>
  <defs id="defs2244">
    <inkscape:perspective id="perspective49" inkscape:persp3d-origin="165 : 110 : 1" inkscape:vp_x="0 : 165 : 1" inkscape:vp_y="0 : 1000 : 0" inkscape:vp_z="330 : 165 : 1" sodipodi:type="inkscape:persp3d"/>
  </defs>
  <sodipodi:namedview bordercolor="#666666" borderopacity="1.0" gridtolerance="10.0" guidetolerance="10.0" id="base" inkscape:current-layer="svg2241" inkscape:cx="37.499954" inkscape:cy="57.991598" inkscape:guide-bbox="true" inkscape:pageopacity="0.0" inkscape:pageshadow="2" inkscape:window-height="712" inkscape:window-width="1024" inkscape:window-x="110" inkscape:window-y="54" inkscape:zoom="2.0618828" objecttolerance="10.0" pagecolor="#ffffff" showgrid="false" showguides="true"/>
  <path d="M 49.930219,37.937146 C 50.321828,38.272836 50.633528,38.664456 50.865321,39.112016 C 51.097082,39.559596 51.212971,40.155026 51.212986,40.898306 C 51.212971,41.737496 51.04713,42.520746 50.715465,43.248046 C 50.383768,43.975346 49.874259,44.598746 49.186934,45.118246 C 48.515566,45.621766 47.726325,46.007386 46.81921,46.275136 C 45.912071,46.542876 44.81113,46.676746 43.516384,46.676746 C 42.037799,46.676746 40.76902,46.560856 39.710043,46.329086 C 38.651058,46.097306 37.789886,45.837556 37.126526,45.549826 L 37.126526,41.629596 L 37.594077,41.629596 C 38.281413,42.045206 39.102623,42.404856 40.057709,42.708566 C 41.012785,43.012276 41.885945,43.164126 42.677191,43.164126 C 43.140738,43.164126 43.644253,43.126166 44.187739,43.050236 C 44.731207,42.974306 45.190765,42.808466 45.566414,42.552706 C 45.862119,42.352906 46.097892,42.111136 46.273734,41.827406 C 46.449554,41.543686 46.537469,41.134076 46.53748,40.598586 C 46.537469,40.079096 46.417585,39.677486 46.177826,39.393746 C 45.938046,39.110026 45.62235,38.908226 45.230736,38.788326 C 44.839103,38.660456 44.367557,38.590526 43.816096,38.578526 C 43.264618,38.566546 42.753111,38.560556 42.281571,38.560546 L 41.298516,38.560546 L 41.298516,35.371616 L 42.317537,35.371616 C 42.94093,35.371626 43.492399,35.351646 43.971946,35.311666 C 44.451476,35.271716 44.859084,35.179806 45.194771,35.035936 C 45.546423,34.884096 45.810169,34.682286 45.98601,34.430516 C 46.161831,34.178776 46.249746,33.809126 46.249757,33.321586 C 46.249746,32.961946 46.157835,32.672226 45.974022,32.452416 C 45.790188,32.232646 45.558411,32.058816 45.27869,31.930916 C 44.96698,31.787076 44.599334,31.691166 44.17575,31.643196 C 43.752149,31.595256 43.388499,31.571276 43.084799,31.571266 C 42.333514,31.571276 41.518299,31.701156 40.63915,31.960896 C 39.759991,32.220656 38.908809,32.594296 38.085604,33.081816 L 37.642031,33.081816 L 37.642031,29.209536 C 38.297398,28.945806 39.18854,28.692056 40.315461,28.448266 C 41.442372,28.204516 42.585272,28.082636 43.744165,28.082616 C 44.871073,28.082636 45.858123,28.180546 46.705319,28.376336 C 47.552493,28.572166 48.25182,28.833916 48.803303,29.161586 C 49.458659,29.553226 49.946189,30.028766 50.265897,30.588216 C 50.585574,31.147686 50.74542,31.803056 50.745436,32.554326 C 50.74542,33.545386 50.437717,34.430526 49.822323,35.209766 C 49.206901,35.989026 48.395681,36.486556 47.388662,36.702336 L 47.388662,36.870176 C 47.796258,36.926126 48.227843,37.038016 48.683418,37.205846 C 49.138966,37.373696 49.554566,37.617466 49.930219,37.937146 L 49.930219,37.937146 z" id="text2282" style="font-size:24.55240059px;font-style:normal;font-variant:normal;font-weight:bold;font-stretch:normal;text-align:center;line-height:100%;text-anchor:middle;fill:#000000;fill-opacity:1;stroke:none;stroke-width:1px;stroke-linecap:butt;stroke-linejoin:miter;stroke-opacity:1;font-family:Verdana"/>
  <path d="M 33.344022,76.116726 C 33.344005,76.915966 33.204139,77.697216 32.924425,78.460476 C 32.644678,79.223746 32.245062,79.865126 31.725577,80.384626 C 31.014246,81.087956 30.22101,81.619446 29.345865,81.979086 C 28.470694,82.338746 27.381741,82.518576 26.079005,82.518566 L 23.213759,82.518566 L 23.213759,88.332986 L 18.610184,88.332986 L 18.610184,70.482136 L 26.186901,70.482136 C 27.321799,70.482156 28.278878,70.580066 29.058141,70.775856 C 29.837379,70.971686 30.526715,71.265406 31.126153,71.657006 C 31.845447,72.128576 32.394918,72.731996 32.774569,73.467266 C 33.154187,74.202576 33.344005,75.085726 33.344022,76.116726 L 33.344022,76.116726 z M 28.584596,76.224616 C 28.584584,75.721116 28.448715,75.287536 28.176988,74.923866 C 27.905238,74.560236 27.589541,74.306476 27.229898,74.162606 C 26.750349,73.970806 26.282799,73.864906 25.827247,73.844906 C 25.371675,73.824946 24.76426,73.814956 24.004998,73.814936 L 23.213759,73.814936 L 23.213759,79.161796 L 24.532491,79.161796 C 25.315729,79.161806 25.961108,79.113856 26.46863,79.017936 C 26.976132,78.922036 27.401722,78.730226 27.745403,78.442486 C 28.041107,78.186746 28.254901,77.881036 28.386786,77.525366 C 28.518648,77.169726 28.584584,76.736136 28.584596,76.224616 L 28.584596,76.224616 z M 52.777343,70.482136 L 46.2676,88.332986 L 41.112555,88.332986 L 34.602812,70.482136 L 39.434168,70.482136 L 43.75002,83.022086 L 48.065872,70.482136 L 52.777343,70.482136 z M 63.411121,88.680646 C 62.084387,88.680646 60.859566,88.484836 59.736653,88.093216 C 58.613727,87.701586 57.648655,87.118146 56.841436,86.342896 C 56.034209,85.567646 55.408811,84.600576 54.965239,83.441686 C 54.521664,82.282806 54.299878,80.944096 54.299879,79.425546 C 54.299878,78.010916 54.511674,76.728146 54.935268,75.577246 C 55.358859,74.426366 55.974267,73.439316 56.781494,72.616086 C 57.556744,71.824866 58.517819,71.213456 59.664722,70.781856 C 60.811612,70.350286 62.064407,70.134496 63.42311,70.134476 C 64.174376,70.134496 64.851725,70.176456 65.455157,70.260356 C 66.058564,70.344286 66.616027,70.454186 67.127549,70.590036 C 67.66302,70.741906 68.148553,70.911746 68.584149,71.099546 C 69.019714,71.287386 69.401347,71.461216 69.729049,71.621046 L 69.729049,75.948886 L 69.201556,75.948886 C 68.977755,75.757086 68.696026,75.529306 68.356368,75.265546 C 68.016679,75.001806 67.631051,74.742056 67.19948,74.486296 C 66.759889,74.230556 66.284346,74.014756 65.772851,73.838916 C 65.261331,73.663096 64.713857,73.575186 64.13043,73.575166 C 63.483042,73.575186 62.867634,73.677086 62.284204,73.880876 C 61.700757,74.084696 61.161276,74.422366 60.66576,74.893896 C 60.194206,75.349476 59.812573,75.952896 59.52086,76.704156 C 59.229135,77.455446 59.083275,78.366576 59.083281,79.437536 C 59.083275,80.556466 59.241123,81.491566 59.556826,82.242836 C 59.872516,82.994116 60.270133,83.585546 60.749679,84.017126 C 61.237203,84.456716 61.78068,84.770406 62.380112,84.958226 C 62.979526,85.146046 63.570957,85.239956 64.154407,85.239956 C 64.713857,85.239956 65.267325,85.156036 65.814811,84.988196 C 66.362271,84.820366 66.867785,84.592576 67.331353,84.304856 C 67.722962,84.073076 68.086612,83.825316 68.422305,83.561566 C 68.757966,83.297826 69.033701,83.070046 69.249509,82.878226 L 69.729049,82.878226 L 69.729049,87.146126 C 69.281463,87.345936 68.853874,87.533756 68.446281,87.709586 C 68.038658,87.885416 67.61107,88.037266 67.163514,88.165146 C 66.580062,88.332986 66.032589,88.460856 65.521093,88.548776 C 65.009573,88.636686 64.30625,88.680646 63.411121,88.680646 L 63.411121,88.680646 z" id="text2302" style="font-size:24.55240059px;font-style:normal;font-variant:normal;font-weight:bold;font-stretch:normal;text-align:center;line-height:100%;text-anchor:middle;fill:#000000;fill-opacity:1;stroke:none;stroke-width:1px;stroke-linecap:butt;stroke-linejoin:miter;stroke-opacity:1;font-family:Verdana"/>
  <path d="M 51.592921,67.133556 C 51.338994,66.838156 50.265078,64.935856 49.206443,62.906216 L 47.281655,59.215966 L 49.193308,55.387046 C 51.289945,51.187616 51.780293,50.483956 52.61005,50.483956 C 53.443067,50.483956 53.800903,51.446216 53.800903,53.686286 L 53.800903,55.701346 L 59.649644,55.701346 C 63.002965,55.701346 66.089913,55.552396 66.884804,55.352236 C 68.663591,54.904336 70.213906,53.445026 70.656289,51.802146 C 71.332014,49.292696 71.13236,48.853266 62.70182,34.294466 C 61.308868,31.888956 60.169179,29.576086 60.169179,29.154746 C 60.169179,28.104786 60.641248,27.618296 62.868952,26.372496 C 64.491531,25.465096 64.895031,25.352756 65.507506,25.637896 C 65.962035,25.849506 67.08509,27.476706 68.531591,30.019526 C 69.79716,32.244286 72.374395,36.729356 74.258779,39.986356 C 76.285927,43.490106 77.836791,46.541186 78.056836,47.458426 C 78.627161,49.835816 78.307028,53.372266 77.337147,55.408656 C 76.310086,57.565106 74.233064,59.742746 72.240023,60.752696 C 69.351089,62.216626 67.715905,62.453256 60.488329,62.453256 L 53.800903,62.453256 L 53.800903,64.576486 C 53.800903,65.744266 53.717075,66.918176 53.614615,67.185176 C 53.365841,67.833476 52.168294,67.802896 51.592921,67.133556 z M 18.967186,62.164666 C 17.223496,61.737136 14.72214,60.241286 13.286893,58.767766 C 10.653997,56.064676 9.544886,52.478156 10.170453,48.690196 C 10.636538,45.867946 11.350239,44.297846 14.774458,38.561636 C 16.320869,35.971106 17.586113,33.740056 17.586113,33.603726 C 17.586113,33.467406 16.85649,32.944096 15.964728,32.440816 C 13.85087,31.247826 13.451323,30.765766 13.892754,29.940936 C 14.079205,29.592556 14.537638,29.293686 14.911494,29.276796 C 16.504874,29.204796 20.931037,29.337696 22.395391,29.501516 L 23.982167,29.679026 L 26.461883,33.353896 C 28.997025,37.110906 29.394237,38.250826 28.360946,38.803826 C 27.906245,39.047166 27.342485,38.882246 25.761884,38.043456 L 23.743475,36.972336 L 23.309987,37.666776 C 22.060518,39.668376 18.625266,45.605566 17.999082,46.845666 C 16.937721,48.947606 17.002411,51.237376 18.168643,52.847306 C 19.830445,55.141356 20.260557,55.217376 32.57292,55.393116 C 45.280809,55.574496 44.286848,55.244806 44.286848,59.278616 C 44.286848,61.474976 44.206691,61.860746 43.693214,62.135546 C 43.009154,62.501646 20.449893,62.528216 18.967186,62.164666 z M 25.536045,27.220446 C 23.493445,26.020766 23.110403,25.638436 23.110403,24.799316 C 23.110403,24.386536 25.627881,19.675706 28.707678,14.325396 C 34.789016,3.7607262 35.806133,2.4239062 38.922704,0.89944618 C 40.59646,0.080736183 41.041451,0.0018261831 43.994377,4.6183136e-05 C 47.077842,-0.0018238169 47.33017,0.048226183 49.316318,1.0555662 C 52.361875,2.6002262 54.30935,4.9048462 57.637216,10.902396 C 59.156392,13.640296 60.537465,16.065426 60.706263,16.291576 C 60.952517,16.621506 61.343935,16.492626 62.686923,15.639416 C 65.128279,14.088416 66.45277,14.310166 65.963591,16.188006 C 65.750633,17.005506 61.627171,23.498586 61.123156,23.810086 C 60.625083,24.117906 52.469804,24.502956 51.69002,24.255466 C 51.25837,24.118466 51.038758,23.793716 51.038758,23.292426 C 51.038758,22.701016 51.437265,22.287256 52.866313,21.394956 C 53.871467,20.767326 54.70011,20.130706 54.707743,19.980236 C 54.726443,19.611526 49.630647,10.699396 48.659302,9.4020062 C 47.789644,8.2404462 45.820526,7.2238362 44.440301,7.2238362 C 43.200966,7.2238362 41.247436,8.1637662 40.243175,9.2432562 C 39.791531,9.7287362 37.197754,13.992956 34.479226,18.719286 C 31.760696,23.445626 29.307156,27.485266 29.026912,27.696256 C 28.242024,28.287206 27.083479,28.129296 25.536045,27.220446 z" id="path2326" sodipodi:nodetypes="ccccscccssssssssssscccsccssssssscccscccsssssccsssssssssssssssssssc" style="fill:#000000"/>
</svg>

<svg xmlns="http://www.w3.org/2000/svg" viewBox="0 0 89 89"><path d="m49.93 37.937c.392.336.703.727.935 1.175.232.448.348 1.043.348 1.786 0 .839-.166 1.622-.498 2.35-.332.727-.841 1.351-1.529 1.87-.671.504-1.461.889-2.368 1.157-.907.268-2.01.402-3.303.402-1.479 0-2.747-.116-3.806-.348-1.059-.232-1.92-.492-2.584-.779v-3.92h.468c.687.416 1.509.775 2.464 1.079.955.304 1.828.456 2.619.456.464 0 .967-.038 1.511-.114.543-.076 1-.242 1.379-.498.296-.2.531-.442.707-.725.176-.284.264-.693.264-1.229 0-.519-.12-.921-.36-1.205-.24-.284-.555-.486-.947-.605-.392-.128-.863-.198-1.415-.21-.551-.012-1.063-.018-1.535-.018h-.983v-3.189h1.019c.623 0 1.175-.02 1.654-.06.48-.04.887-.132 1.223-.276.352-.152.615-.354.791-.605.176-.252.264-.621.264-1.109 0-.36-.092-.649-.276-.869-.184-.22-.416-.394-.695-.521-.312-.144-.679-.24-1.103-.288-.424-.048-.787-.072-1.091-.072-.751 0-1.566.13-2.446.39-.879.26-1.73.633-2.554 1.121h-.444v-3.872c.655-.264 1.547-.517 2.673-.761 1.127-.244 2.27-.366 3.429-.366 1.127 0 2.114.098 2.961.294.847.196 1.547.458 2.098.785.655.392 1.143.867 1.463 1.427.32.559.48 1.215.48 1.966 0 .991-.308 1.876-.923 2.655-.615.779-1.427 1.277-2.434 1.493v.168c.408.056.839.168 1.295.336.456.168.871.412 1.247.731"/><path d="m33.34 76.12c0 .799-.14 1.58-.42 2.344-.28.763-.679 1.405-1.199 1.924-.711.703-1.505 1.235-2.38 1.594-.875.36-1.964.539-3.267.539h-2.865v5.814h-4.604v-17.851h7.577c1.135 0 2.092.098 2.871.294.779.196 1.469.49 2.068.881.719.472 1.269 1.075 1.648 1.81.38.735.569 1.618.569 2.649m-4.759.108c0-.504-.136-.937-.408-1.301-.272-.364-.587-.617-.947-.761-.48-.192-.947-.298-1.403-.318-.456-.02-1.063-.03-1.822-.03h-.791v5.347h1.319c.783 0 1.429-.048 1.936-.144.508-.096.933-.288 1.277-.575.296-.256.509-.561.641-.917.132-.356.198-.789.198-1.301m24.19-5.742l-6.51 17.851h-5.155l-6.51-17.851h4.831l4.316 12.54 4.316-12.54h4.711m10.634 18.199c-1.327 0-2.552-.196-3.674-.587-1.123-.392-2.088-.975-2.895-1.75-.807-.775-1.433-1.742-1.876-2.901-.444-1.159-.665-2.498-.665-4.02 0-1.415.212-2.697.635-3.848.424-1.151 1.039-2.138 1.846-2.961.775-.791 1.736-1.403 2.883-1.834 1.147-.432 2.4-.647 3.758-.647.751 0 1.429.042 2.032.126.603.084 1.161.194 1.672.33.535.152 1.021.322 1.457.51.436.188.817.362 1.145.522v4.328h-.527c-.224-.192-.506-.42-.845-.683-.34-.264-.725-.523-1.157-.779-.44-.256-.915-.472-1.427-.647-.512-.176-1.059-.264-1.642-.264-.647 0-1.263.102-1.846.306-.583.204-1.123.541-1.618 1.013-.472.456-.853 1.059-1.145 1.81-.292.751-.438 1.662-.438 2.733 0 1.119.158 2.054.474 2.805.316.751.713 1.343 1.193 1.774.488.44 1.031.753 1.63.941.599.188 1.191.282 1.774.282.559 0 1.113-.084 1.66-.252.547-.168 1.053-.396 1.517-.683.392-.232.755-.48 1.091-.743.336-.264.611-.492.827-.683h.48v4.268c-.448.2-.875.388-1.283.563-.408.176-.835.328-1.283.456-.583.168-1.131.296-1.642.384-.512.088-1.215.132-2.11.132"/><path d="m51.593 67.13c-.254-.295-1.328-2.198-2.386-4.227l-1.925-3.69 1.912-3.829c2.097-4.199 2.587-4.903 3.417-4.903.833 0 1.191.962 1.191 3.202v2.02h5.849c3.353 0 6.44-.149 7.235-.349 1.779-.448 3.329-1.907 3.771-3.55.676-2.509.476-2.949-7.954-17.508-1.393-2.406-2.533-4.718-2.533-5.14 0-1.05.472-1.536 2.7-2.782 1.623-.907 2.026-1.02 2.639-.735.455.212 1.578 1.839 3.02 4.382 1.266 2.225 3.843 6.71 5.727 9.967 2.027 3.504 3.578 6.555 3.798 7.472.57 2.377.25 5.914-.72 7.95-1.027 2.156-3.104 4.334-5.097 5.344-2.889 1.464-4.524 1.701-11.752 1.701h-6.687v2.123c0 1.168-.084 2.342-.186 2.609-.249.648-1.446.618-2.02-.052m-32.626-4.969c-1.744-.428-4.245-1.923-5.68-3.397-2.633-2.703-3.742-6.29-3.116-10.08.466-2.822 1.18-4.392 4.604-10.129 1.546-2.591 2.812-4.822 2.812-4.958 0-.136-.73-.66-1.621-1.163-2.114-1.193-2.513-1.675-2.072-2.5.186-.348.645-.647 1.019-.664 1.593-.072 6.02.061 7.484.225l1.587.178 2.48 3.675c2.535 3.757 2.932 4.897 1.899 5.45-.455.243-1.018.078-2.599-.76l-2.02-1.071-.433.694c-1.249 2-4.685 7.939-5.311 9.179-1.061 2.102-.997 4.392.17 6 1.662 2.294 2.092 2.37 14.404 2.546 12.708.181 11.714-.148 11.714 3.886 0 2.196-.08 2.582-.594 2.857-.684.366-23.24.393-24.726.029m6.569-34.944c-2.043-1.2-2.426-1.582-2.426-2.421 0-.413 2.517-5.124 5.597-10.474 6.081-10.565 7.098-11.901 10.215-13.426 1.674-.819 2.119-.898 5.072-.899 3.083-.002 3.336.048 5.322 1.056 3.046 1.545 4.993 3.849 8.321 9.847 1.519 2.738 2.9 5.163 3.069 5.389.246.33.638.201 1.981-.652 2.441-1.551 3.766-1.329 3.277.549-.213.817-4.336 7.311-4.84 7.622-.498.308-8.653.693-9.433.445-.432-.137-.651-.462-.651-.963 0-.591.399-1.01 1.828-1.897 1.01-.628 1.834-1.264 1.841-1.415.019-.369-5.077-9.281-6.05-10.578-.87-1.162-2.839-2.178-4.219-2.178-1.239 0-3.193.94-4.197 2.02-.452.485-3.045 4.75-5.764 9.476-2.719 4.726-5.172 8.766-5.452 8.977-.785.591-1.943.433-3.491-.476"/></svg>
